docs/img/filter/24/various/cup.svg

<svg width="24" height="24" viewBox="0 0 24 24" fill="none" xmlns="http://www.w3.org/2000/svg">
<g id="24 / various / cup">
<path id="Union" fill-rule="evenodd" clip-rule="evenodd" d="M11 6.07089V5H10C8.5 5 8.5 3 10 3H14C15.5 3 15.5 5 14 5H13V6.07089C16.3923 6.55612 19 9.47353 19 13C19 14.1046 18.1046 15 17 15L7 15C5.89543 15 5 14.1046 5 13C5 9.47353 7.60771 6.55612 11 6.07089ZM17 13C17 10.2386 14.7614 8 12 8C9.23858 8 7 10.2386 7 13L17 13ZM5.53238 19L6.13238 18H17.8676L18.4676 19H5.53238ZM18.4338 16H5.56619C5.21493 16 4.88942 16.1843 4.7087 16.4855L2.9087 19.4855C2.50879 20.152 2.9889 21 3.76619 21H20.2338C21.0111 21 21.4912 20.152 21.0913 19.4855L19.2913 16.4855C19.1106 16.1843 18.7851 16 18.4338 16Z" fill="#0F83EE"/>
</g>
</svg>

<svg width="24" height="24" fill="none" xmlns="http://www.w3.org/2000/svg"><path fill-rule="evenodd" clip-rule="evenodd" d="M11 6.07V5h-1c-1.5 0-1.5-2 0-2h4c1.5 0 1.5 2 0 2h-1v1.07c3.392.486 6 3.404 6 6.93a2 2 0 0 1-2 2H7a2 2 0 0 1-2-2 7.002 7.002 0 0 1 6-6.93zM17 13a5 5 0 0 0-10 0h10zM5.532 19l.6-1h11.736l.6 1H5.532zm12.902-3H5.566a1 1 0 0 0-.857.485l-1.8 3A1 1 0 0 0 3.766 21h16.468a1 1 0 0 0 .857-1.515l-1.8-3a1 1 0 0 0-.857-.485z" fill="#0F83EE"/></svg>
